src/images/Insta.svg

<svg width="20" height="20" viewBox="0 0 20 20" fill="none" xmlns="http://www.w3.org/2000/svg">
<path d="M13.6585 2.26307C14.7231 2.26613 15.7431 2.67471 16.4958 3.39958C17.2486 4.12445 17.6729 5.1067 17.6761 6.13181V13.8685C17.6729 14.8936 17.2486 15.8758 16.4958 16.6007C15.7431 17.3256 14.7231 17.7342 13.6585 17.7372H5.6243C4.55976 17.7342 3.53973 17.3256 2.78698 16.6007C2.03423 15.8758 1.60994 14.8936 1.60676 13.8685V6.13181C1.60994 5.1067 2.03423 4.12445 2.78698 3.39958C3.53973 2.67471 4.55976 2.26613 5.6243 2.26307H13.6585ZM13.6585 0.71582H5.6243C2.53087 0.71582 0 3.15296 0 6.13181V13.8685C0 16.8473 2.53087 19.2845 5.6243 19.2845H13.6585C16.752 19.2845 19.2828 16.8473 19.2828 13.8685V6.13181C19.2828 3.15296 16.752 0.71582 13.6585 0.71582Z" fill="#274C5B"/>
<path d="M14.8638 6.1326C14.6254 6.1326 14.3924 6.06454 14.1942 5.93702C13.996 5.8095 13.8416 5.62824 13.7504 5.41618C13.6591 5.20412 13.6353 4.97078 13.6818 4.74565C13.7283 4.52053 13.8431 4.31374 14.0116 4.15144C14.1802 3.98913 14.3949 3.8786 14.6287 3.83382C14.8625 3.78904 15.1048 3.81203 15.325 3.89986C15.5452 3.9877 15.7334 4.13645 15.8659 4.3273C15.9983 4.51815 16.069 4.74253 16.069 4.97206C16.0693 5.12456 16.0384 5.27562 15.9779 5.41657C15.9175 5.55752 15.8287 5.68559 15.7167 5.79342C15.6048 5.90125 15.4718 5.98673 15.3254 6.04493C15.179 6.10314 15.0222 6.13293 14.8638 6.1326ZM9.64151 6.90602C10.2772 6.90602 10.8986 7.08754 11.4271 7.42761C11.9556 7.76768 12.3676 8.25104 12.6108 8.81656C12.8541 9.38209 12.9177 10.0044 12.7937 10.6047C12.6697 11.2051 12.3636 11.7565 11.9141 12.1894C11.4646 12.6222 10.892 12.917 10.2685 13.0364C9.64507 13.1558 8.99886 13.0945 8.41158 12.8603C7.82431 12.626 7.32236 12.2293 6.96921 11.7204C6.61606 11.2114 6.42756 10.6131 6.42756 10.0009C6.42847 9.18038 6.76738 8.39369 7.36991 7.81347C7.97245 7.23325 8.7894 6.9069 9.64151 6.90602ZM9.64151 5.35877C8.68806 5.35877 7.75603 5.63103 6.96327 6.14112C6.17051 6.65121 5.55263 7.37621 5.18776 8.22446C4.82289 9.0727 4.72742 10.0061 4.91343 10.9066C5.09944 11.8071 5.55857 12.6342 6.23275 13.2834C6.90694 13.9327 7.76591 14.3748 8.70104 14.5539C9.63616 14.733 10.6054 14.6411 11.4863 14.2897C12.3672 13.9384 13.1201 13.3434 13.6498 12.58C14.1795 11.8166 14.4622 10.9191 14.4622 10.0009C14.4622 8.76976 13.9543 7.58901 13.0503 6.71843C12.1462 5.84786 10.92 5.35877 9.64151 5.35877Z" fill="#274C5B"/>
</svg>

<svg width="20" height="20" fill="none" xmlns="http://www.w3.org/2000/svg"><path d="M13.659 2.263A4.109 4.109 0 0 1 16.495 3.4a3.81 3.81 0 0 1 1.18 2.732v7.736a3.81 3.81 0 0 1-1.18 2.733 4.109 4.109 0 0 1-2.837 1.136H5.623a4.109 4.109 0 0 1-2.837-1.136 3.81 3.81 0 0 1-1.18-2.732V6.131A3.81 3.81 0 0 1 2.787 3.4a4.11 4.11 0 0 1 2.837-1.137h8.035Zm0-1.547H5.623C2.531.716 0 3.153 0 6.132v7.736c0 2.98 2.53 5.417 5.624 5.417h8.035c3.093 0 5.624-2.438 5.624-5.417V6.132c0-2.979-2.531-5.416-5.625-5.416Z" fill="#274C5B"/><path d="M14.864 6.133c-.239 0-.472-.068-.67-.196a1.17 1.17 0 0 1-.444-.52 1.12 1.12 0 0 1-.068-.671c.046-.225.161-.432.33-.595a1.22 1.22 0 0 1 .617-.317c.234-.045.476-.022.696.066.22.088.408.236.54.427a1.13 1.13 0 0 1-.148 1.466 1.243 1.243 0 0 1-.853.34Zm-5.222.773c.635 0 1.257.182 1.785.522.529.34.94.823 1.184 1.389.243.565.307 1.187.183 1.788-.124.6-.43 1.152-.88 1.584a3.254 3.254 0 0 1-1.646.847 3.33 3.33 0 0 1-1.856-.176 3.192 3.192 0 0 1-1.443-1.14A3.014 3.014 0 0 1 6.428 10c0-.82.34-1.606.942-2.187a3.281 3.281 0 0 1 2.272-.907Zm0-1.547c-.954 0-1.886.272-2.679.782a4.685 4.685 0 0 0-1.775 2.083 4.483 4.483 0 0 0-.275 2.683c.186.9.646 1.727 1.32 2.376a4.88 4.88 0 0 0 2.468 1.27c.935.18 1.904.088 2.785-.263a4.786 4.786 0 0 0 2.164-1.71 4.52 4.52 0 0 0 .812-2.58 4.557 4.557 0 0 0-1.412-3.282 4.917 4.917 0 0 0-3.408-1.36Z" fill="#274C5B"/></svg>
